apps/www/public/images/logos/frameworks/remix.svg

<svg width="61" height="61" viewBox="0 0 61 61" fill="none" xmlns="http://www.w3.org/2000/svg">
<path d="M44.5941 39.7635C44.9249 43.9427 44.9249 45.9015 44.9249 48.0393H35.1061C35.1061 47.5729 35.1139 47.1478 35.1216 46.715C35.1496 45.3724 35.1776 43.9717 34.9555 41.1443C34.6635 37.0034 32.8525 36.0829 29.5242 36.0829H14.0801V28.5503H29.9902C34.196 28.5503 36.3005 27.2918 36.3005 23.9552C36.3005 21.0239 34.196 19.2455 29.9902 19.2455H14.0801V11.875H31.7436C41.2642 11.875 45.9965 16.3034 45.9965 23.3757C45.9965 28.6665 42.6667 32.1163 38.1689 32.6912C41.9662 33.439 44.1856 35.566 44.5941 39.7635Z" fill="#7E7E7E"/>
<path d="M14.0801 48.0393V42.4242H24.4626C26.1959 42.4242 26.5733 43.6904 26.5733 44.4458V48.0393H14.0801Z" fill="#7E7E7E"/>
</svg>

<svg xmlns="http://www.w3.org/2000/svg" width="61" height="61" fill="none" viewBox="0 0 61 61"><path fill="#7e7e7e" d="M44.594 39.764c.33 4.179.33 6.137.33 8.275h-9.818c0-.466.008-.891.016-1.324.028-1.343.056-2.743-.166-5.57-.293-4.142-2.104-5.062-5.432-5.062H14.08V28.55h15.91c4.206 0 6.31-1.258 6.31-4.595 0-2.931-2.104-4.71-6.31-4.71H14.08v-7.37h17.664c9.52 0 14.252 4.428 14.252 11.5 0 5.291-3.33 8.741-7.827 9.316 3.797.748 6.017 2.875 6.425 7.072"/><path fill="#7e7e7e" d="M14.08 48.04v-5.616h10.383c1.733 0 2.11 1.266 2.11 2.022v3.593z"/></svg>
